img/advantages/11.svg

<svg width="42" height="42" viewBox="0 0 42 42" fill="none" xmlns="http://www.w3.org/2000/svg">
<path d="M12.2226 11.6875H29.7226C29.927 11.6874 30.1313 11.7004 30.334 11.7263C30.2653 11.2439 30.0996 10.7803 29.8469 10.3636C29.5941 9.94694 29.2596 9.58574 28.8635 9.30182C28.4675 9.0179 28.018 8.81713 27.5422 8.71162C27.0664 8.60611 26.5742 8.59804 26.0952 8.6879L11.7031 11.145H11.6867C10.7833 11.3178 9.97993 11.8289 9.44067 12.574C10.2531 11.9961 11.2256 11.6862 12.2226 11.6875Z" fill="#88889F"/>
<path d="M29.7227 13H12.2227C11.2947 13.001 10.4051 13.3701 9.7489 14.0262C9.09274 14.6824 8.72367 15.5721 8.72266 16.5V27C8.72367 27.9279 9.09274 28.8176 9.7489 29.4738C10.4051 30.1299 11.2947 30.499 12.2227 30.5H29.7227C30.6506 30.499 31.5403 30.1299 32.1964 29.4738C32.8526 28.8176 33.2216 27.9279 33.2227 27V16.5C33.2216 15.5721 32.8526 14.6824 32.1964 14.0262C31.5403 13.3701 30.6506 13.001 29.7227 13ZM27.125 23.5C26.7789 23.5 26.4405 23.3974 26.1528 23.2051C25.865 23.0128 25.6407 22.7395 25.5082 22.4197C25.3758 22.0999 25.3411 21.7481 25.4086 21.4086C25.4762 21.0691 25.6428 20.7573 25.8876 20.5126C26.1323 20.2678 26.4441 20.1011 26.7836 20.0336C27.1231 19.9661 27.4749 20.0008 27.7947 20.1332C28.1145 20.2657 28.3878 20.49 28.5801 20.7778C28.7724 21.0655 28.875 21.4039 28.875 21.75C28.875 22.2141 28.6906 22.6592 28.3624 22.9874C28.0342 23.3156 27.5891 23.5 27.125 23.5Z" fill="#88889F"/>
<path d="M8.75 20.1914V14.75C8.75 13.5649 9.40625 11.5781 11.684 11.1477C13.6172 10.7852 15.5312 10.7852 15.5312 10.7852C15.5312 10.7852 16.7891 11.6602 15.75 11.6602C14.7109 11.6602 14.7383 13 15.75 13C16.7617 13 15.75 14.2852 15.75 14.2852L11.6758 18.9062L8.75 20.1914Z" fill="#88889F"/>
</svg>

<svg width="42" height="42" fill="none" xmlns="http://www.w3.org/2000/svg"><path d="M12.223 11.688h17.5c.204 0 .408.012.611.038a3.61 3.61 0 0 0-4.239-3.038l-14.392 2.457h-.016a3.61 3.61 0 0 0-2.246 1.429 4.789 4.789 0 0 1 2.782-.886ZM29.723 13h-17.5a3.504 3.504 0 0 0-3.5 3.5V27a3.504 3.504 0 0 0 3.5 3.5h17.5a3.504 3.504 0 0 0 3.5-3.5V16.5a3.504 3.504 0 0 0-3.5-3.5Zm-2.598 10.5a1.75 1.75 0 1 1 0-3.5 1.75 1.75 0 0 1 0 3.5Z" fill="#88889F"/><path d="M8.75 20.191V14.75c0-1.185.656-3.172 2.934-3.602 1.933-.363 3.847-.363 3.847-.363s1.258.875.219.875c-1.04 0-1.012 1.34 0 1.34s0 1.285 0 1.285l-4.074 4.621-2.926 1.285Z" fill="#88889F"/></svg>
